Papirus-GTK/24x24/apps/telegram.svg

<svg height="24" width="24" xmlns="http://www.w3.org/2000/svg" xmlns:xlink="http://www.w3.org/1999/xlink"><clipPath id="a"><circle cx="286" cy="26" r="10"/></clipPath><circle cx="12" cy="12" fill="#37a0f2" r="10"/><circle clip-path="url(#a)" cx="286" cy="26" opacity="0" r="10" stroke-width=".45455" transform="translate(-274 -14)"/><circle clip-path="url(#a)" cx="286" cy="26" opacity="0" r="10" stroke-width=".90908998" transform="translate(-274 -14)"/><path d="m12 2c-5.5395 0-9.999 4.46-9.999 10 0 .08386-.002.166645 0 .25.1321-5.423 4.5435-9.75 9.999-9.75 5.4555 0 9.867 4.3268 9.999 9.75.002-.08335 0-.16614 0-.25 0-5.54-4.4595-10-9.999-10z" fill="#fff" opacity=".2"/><path d="m21.9895 11.709a10 10 0 0 1 -9.9895 9.791 10 10 0 0 1 -9.989-9.709 10 10 0 0 0 -.011.209 10 10 0 0 0  10 10 10 10 0 0 0  10-10 10 10 0 0 0 -.0105-.291z" opacity=".3"/><path d="m11.920763 18.412468c-.278475-.169043-.45605-.46166-1.229479-2.026009-.42806-.865793-.83553-1.634797-.905478-1.708902-.07895-.08316-.724214-.426318-1.6879021-.896846-1.9047452-.930004-2.0979039-1.077373-2.0979039-1.603691 0-.245812.1199163-.480776.3079592-.603424.064611-.04211 2.0557459-.754531 4.4247038-1.5830606 4.162387-1.4557958 4.317124-1.5058487 4.601441-1.4885328.24607.015.317354.04.435565.1527322.177233.1690271.256954.4033334.222459.6537924-.03711.2692433-3.025487 8.7105658-3.136645 8.8600398-.237012.318643-.639161.423639-.934952.244096z" opacity=".2"/><path d="m11.920763 17.912468c-.278475-.169043-.45605-.46166-1.229479-2.026009-.42806-.865793-.83553-1.634797-.905478-1.708902-.07895-.08316-.724214-.426318-1.6879021-.896846-1.9047452-.930004-2.0979039-1.077373-2.0979039-1.603691 0-.245812.1199163-.480776.3079592-.603424.064611-.04211 2.0557459-.75453 4.4247038-1.5830601 4.162387-1.4557958 4.317124-1.5058487 4.601441-1.4885328.24607.015.317354.04.435565.1527322.177233.1690271.256954.4033334.222459.6537924-.03711.2692433-3.025487 8.7105653-3.136645 8.8600393-.237012.318643-.639161.423639-.934952.244096z" fill="#fff"/></svg>

<?xml version="1.0" encoding="UTF-8" standalone="no"?>
<!-- Created with Inkscape (http://www.inkscape.org/) -->

<svg
   xmlns:dc="http://purl.org/dc/elements/1.1/"
   xmlns:cc="http://creativecommons.org/ns#"
   xmlns:rdf="http://www.w3.org/1999/02/22-rdf-syntax-ns#"
   xmlns:svg="http://www.w3.org/2000/svg"
   xmlns="http://www.w3.org/2000/svg"
   xmlns:sodipodi="http://sodipodi.sourceforge.net/DTD/sodipodi-0.dtd"
   xmlns:inkscape="http://www.inkscape.org/namespaces/inkscape"
   id="svg2817"
   height="24"
   width="24"
   version="1.0"
   inkscape:version="0.91 r13725"
   sodipodi:docname="telegram.svg">
  <sodipodi:namedview
     pagecolor="#ffffff"
     bordercolor="#666666"
     borderopacity="1"
     objecttolerance="10"
     gridtolerance="10"
     guidetolerance="10"
     inkscape:pageopacity="0"
     inkscape:pageshadow="2"
     inkscape:window-width="1600"
     inkscape:window-height="845"
     id="namedview14"
     showgrid="false"
     inkscape:zoom="1"
     inkscape:cx="12"
     inkscape:cy="10.304491"
     inkscape:window-x="0"
     inkscape:window-y="32"
     inkscape:window-maximized="1"
     inkscape:current-layer="svg2817" />
  <metadata
     id="metadata57">
    <rdf:RDF>
      <cc:Work
         rdf:about="">
        <dc:format>image/svg+xml</dc:format>
        <dc:type
           rdf:resource="http://purl.org/dc/dcmitype/StillImage" />
        <dc:title />
      </cc:Work>
    </rdf:RDF>
  </metadata>
  <defs
     id="defs2819">
    <clipPath
       id="clipPath4186"
       clipPathUnits="userSpaceOnUse">
      <circle
         id="path4188"
         style="color:#000000"
         cx="286"
         cy="26"
         r="10"
         fill="url(#linearGradient4190)" />
    </clipPath>
  </defs>
  <circle
     id="path4230"
     style="color:#000000;fill:#37a0f2"
     cx="12"
     cy="12"
     r="10" />
  <circle
     id="path4240"
     style="color:#000000;opacity:0;stroke-width:0.45455"
     clip-path="url(#clipPath4186)"
     r="10"
     transform="translate(-274,-14)"
     cy="26"
     cx="286" />
  <circle
     id="path4242"
     style="color:#000000;opacity:0;stroke-width:0.90908998"
     clip-path="url(#clipPath4186)"
     r="10"
     transform="translate(-274,-14)"
     cy="26"
     cx="286" />
  <path
     style="opacity:0.2;fill:#ffffff"
     inkscape:connector-curvature="0"
     id="rect3436"
     d="M 12,2 C 6.4605,2 2.001,6.46 2.001,12 c 0,0.08386 -0.002,0.166645 0,0.25 C 2.1331,6.827 6.5445,2.5 12,2.5 c 5.4555,0 9.867,4.3268 9.999,9.75 0.002,-0.08335 0,-0.16614 0,-0.25 C 21.999,6.46 17.5395,2 12,2 Z" />
  <path
     inkscape:connector-curvature="0"
     id="circle4330"
     style="color:#000000;opacity:0.3"
     d="M 21.9895,11.709 A 10,10 0 0 1 12,21.5 10,10 0 0 1 2.011,11.791 10,10 0 0 0 2,12 10,10 0 0 0 12,22 10,10 0 0 0 22,12 10,10 0 0 0 21.9895,11.709 Z" />
  <path
     d="M 11.920763,18.412468 C 11.642288,18.243425 11.464713,17.950808 10.691284,16.386459 10.263224,15.520666 9.855754,14.751662 9.785806,14.677557 9.706856,14.594397 9.061592,14.251239 8.0979039,13.780711 6.1931587,12.850707 6,12.703338 6,12.17702 c 0,-0.245812 0.1199163,-0.480776 0.3079592,-0.603424 0.064611,-0.04211 2.0557459,-0.754531 4.4247038,-1.5830606 4.162387,-1.4557958 4.317124,-1.5058487 4.601441,-1.4885328 0.24607,0.015 0.317354,0.04 0.435565,0.1527322 0.177233,0.1690271 0.256954,0.4033334 0.222459,0.6537924 -0.03711,0.2692433 -3.025487,8.7105658 -3.136645,8.8600398 -0.237012,0.318643 -0.639161,0.423639 -0.934952,0.244096 z"
     id="path4158"
     inkscape:connector-curvature="0"
     style="opacity:0.2;fill:#000000;fill-opacity:1" />
  <path
     style="fill:#ffffff"
     inkscape:connector-curvature="0"
     id="path4193"
     d="M 11.920763,17.912468 C 11.642288,17.743425 11.464713,17.450808 10.691284,15.886459 10.263224,15.020666 9.855754,14.251662 9.785806,14.177557 9.706856,14.094397 9.061592,13.751239 8.0979039,13.280711 6.1931587,12.350707 6,12.203338 6,11.67702 c 0,-0.245812 0.1199163,-0.480776 0.3079592,-0.603424 0.064611,-0.04211 2.0557459,-0.75453 4.4247038,-1.5830601 4.162387,-1.4557958 4.317124,-1.5058487 4.601441,-1.4885328 0.24607,0.015 0.317354,0.04 0.435565,0.1527322 0.177233,0.1690271 0.256954,0.4033334 0.222459,0.6537924 -0.03711,0.2692433 -3.025487,8.7105653 -3.136645,8.8600393 -0.237012,0.318643 -0.639161,0.423639 -0.934952,0.244096 z" />
</svg>
